build/img/icons/icon-tg.svg

<svg width="21" height="21" viewBox="0 0 21 21" fill="none" xmlns="http://www.w3.org/2000/svg">
  <path d="M10.5 0C4.69926 0 0 4.69994 0 10.5C0 16.3001 4.69994 21 10.5 21C16.3007 21 21 16.3001 21 10.5C21 4.69994 16.3001 0 10.5 0ZM15.6572 7.19352L13.9338 15.3144C13.8065 15.8902 13.4637 16.0298 12.9855 15.7588L10.3605 13.8241L9.09435 15.0435C8.95481 15.183 8.83626 15.3015 8.56529 15.3015L8.75158 12.6298L13.6161 8.23471C13.8282 8.04842 13.5694 7.94274 13.2896 8.12903L7.27752 11.9138L4.68639 11.1049C4.12345 10.9275 4.11058 10.542 4.80494 10.271L14.9283 6.36706C15.3984 6.19771 15.8089 6.48155 15.6565 7.19284L15.6572 7.19352Z"/>
</svg>

<svg width="21" height="21" fill="none" xmlns="http://www.w3.org/2000/svg"><path d="M10.5 0C4.7 0 0 4.7 0 10.5S4.7 21 10.5 21 21 16.3 21 10.5 16.3 0 10.5 0zm5.157 7.194l-1.723 8.12c-.127.576-.47.716-.948.445l-2.626-1.935-1.266 1.22c-.14.139-.258.258-.529.258l.187-2.672 4.864-4.395c.212-.187-.047-.292-.326-.106l-6.012 3.785-2.592-.81c-.563-.176-.575-.562.119-.833l10.123-3.904c.47-.17.88.115.728.826h.001z"/></svg>
